pontoon/contributors/static/img/community_builder_badge.svg

<svg width="79" height="79" viewBox="0 0 79 79" fill="none" xmlns="http://www.w3.org/2000/svg">
<rect width="78" height="78" transform="translate(0.120361 0.0499878)" fill="#FF3366"/>
<mask id="path-1-outside-1_147_4556" maskUnits="userSpaceOnUse" x="15.9272" y="11.2543" width="47" height="56" fill="black">
<rect fill="white" x="15.9272" y="11.2543" width="47" height="56"/>
<path fill-rule="evenodd" clip-rule="evenodd" d="M32.6401 26.8156C35.2626 26.8156 37.3886 24.6752 37.3886 22.035C37.3886 19.3947 35.2626 17.2543 32.6401 17.2543C30.0176 17.2543 27.8916 19.3947 27.8916 22.035C27.8916 24.6752 30.0176 26.8156 32.6401 26.8156ZM40.1286 30.8356C42.1281 32.9044 43.2515 35.7103 43.2515 38.636V41.7505C44.8486 34.7025 56.39 35.6669 56.39 44.325C56.39 51.5083 46.0618 60.7404 43.069 60.7404C40.131 60.7404 29.9605 51.8024 29.5885 44.7199H21.9272V38.636C21.9272 35.7103 23.0506 32.9044 25.0501 30.8356C27.0496 28.7669 29.7616 27.6046 32.5894 27.6046C35.4171 27.6046 38.1291 28.7669 40.1286 30.8356Z"/>
</mask>
<path fill-rule="evenodd" clip-rule="evenodd" d="M32.6401 26.8156C35.2626 26.8156 37.3886 24.6752 37.3886 22.035C37.3886 19.3947 35.2626 17.2543 32.6401 17.2543C30.0176 17.2543 27.8916 19.3947 27.8916 22.035C27.8916 24.6752 30.0176 26.8156 32.6401 26.8156ZM40.1286 30.8356C42.1281 32.9044 43.2515 35.7103 43.2515 38.636V41.7505C44.8486 34.7025 56.39 35.6669 56.39 44.325C56.39 51.5083 46.0618 60.7404 43.069 60.7404C40.131 60.7404 29.9605 51.8024 29.5885 44.7199H21.9272V38.636C21.9272 35.7103 23.0506 32.9044 25.0501 30.8356C27.0496 28.7669 29.7616 27.6046 32.5894 27.6046C35.4171 27.6046 38.1291 28.7669 40.1286 30.8356Z" fill="white"/>
<path d="M40.1286 30.8356L35.8846 34.9376L35.8846 34.9376L40.1286 30.8356ZM43.2515 41.7505H37.3492C37.3492 44.7562 39.608 47.2819 42.5952 47.6161C45.5823 47.9504 48.3435 45.9864 49.0078 43.0549L43.2515 41.7505ZM43.069 60.7404L43.069 54.8381L43.069 60.7404ZM29.5885 44.7199L35.4827 44.4103C35.318 41.2752 32.7279 38.8176 29.5885 38.8176V44.7199ZM21.9272 44.7199H16.0249C16.0249 47.9797 18.6675 50.6222 21.9272 50.6222V44.7199ZM25.0501 30.8356L29.2941 34.9376L29.2941 34.9376L25.0501 30.8356ZM31.4863 22.035C31.4863 21.4531 31.9654 20.9133 32.6401 20.9133V32.7179C38.5599 32.7179 43.2909 27.8974 43.2909 22.035H31.4863ZM32.6401 23.1566C31.9654 23.1566 31.4863 22.6168 31.4863 22.035H43.2909C43.2909 16.1726 38.5599 11.352 32.6401 11.352V23.1566ZM33.7939 22.035C33.7939 22.6168 33.3148 23.1566 32.6401 23.1566V11.352C26.7203 11.352 21.9893 16.1726 21.9893 22.035H33.7939ZM32.6401 20.9133C33.3148 20.9133 33.7939 21.4531 33.7939 22.035H21.9893C21.9893 27.8974 26.7203 32.7179 32.6401 32.7179V20.9133ZM49.1538 38.636C49.1538 34.2085 47.4557 29.9236 44.3726 26.7337L35.8846 34.9376C36.8006 35.8852 37.3492 37.2121 37.3492 38.636H49.1538ZM49.1538 41.7505V38.636H37.3492V41.7505H49.1538ZM62.2923 44.325C62.2923 36.7348 56.9149 32.1167 51.2574 31.3054C45.9295 30.5415 39.1389 33.1922 37.4951 40.446L49.0078 43.0549C49.0315 42.9504 49.0492 42.9528 49.0143 42.9998C48.9831 43.0418 48.9548 43.0585 48.9616 43.0546C49.003 43.0304 49.2256 42.9394 49.5819 42.9905C49.9204 43.039 50.1305 43.1805 50.2269 43.2849C50.2716 43.3332 50.3239 43.405 50.3715 43.5306C50.4195 43.6573 50.4877 43.9059 50.4877 44.325H62.2923ZM43.069 66.6427C44.7401 66.6427 46.17 66.0655 47.0045 65.6746C47.9752 65.2199 48.9279 64.6333 49.8102 64.0122C51.583 62.7645 53.4655 61.0988 55.191 59.2275C56.9152 57.3575 58.6185 55.1353 59.9204 52.7295C61.1921 50.3795 62.2923 47.4646 62.2923 44.325H50.4877C50.4877 44.777 50.2968 45.7099 49.5385 47.1112C48.8103 48.4567 47.7445 49.8894 46.5126 51.2254C45.282 52.56 44.0212 53.6513 43.0157 54.3591C42.5089 54.7158 42.1638 54.9066 41.9968 54.9848C41.6936 55.1268 42.1461 54.8381 43.069 54.8381L43.069 66.6427ZM23.6943 45.0295C23.8538 48.0656 25.0135 50.8717 26.3185 53.1473C27.6546 55.4772 29.3616 57.6302 31.0822 59.4459C32.8028 61.2616 34.6676 62.8777 36.4196 64.0886C37.2915 64.6912 38.2323 65.2609 39.1899 65.7024C40.0133 66.0821 41.4233 66.6427 43.069 66.6427L43.069 54.8381C43.9802 54.8381 44.4296 55.1194 44.1331 54.9827C43.9707 54.9078 43.632 54.7238 43.1314 54.3778C42.1385 53.6915 40.8866 52.6305 39.6508 51.3263C38.4151 50.0223 37.326 48.6128 36.5587 47.2748C35.7603 45.8825 35.5092 44.9155 35.4827 44.4103L23.6943 45.0295ZM21.9272 50.6222H29.5885V38.8176H21.9272V50.6222ZM16.0249 38.636V44.7199H27.8295V38.636H16.0249ZM20.8061 26.7337C17.723 29.9236 16.0249 34.2085 16.0249 38.636H27.8295C27.8295 37.2121 28.3781 35.8852 29.2941 34.9376L20.8061 26.7337ZM32.5894 21.7023C28.1301 21.7023 23.8959 23.537 20.8061 26.7337L29.2941 34.9376C30.2034 33.9967 31.3931 33.5069 32.5894 33.5069V21.7023ZM44.3726 26.7337C41.2828 23.537 37.0486 21.7023 32.5894 21.7023V33.5069C33.7856 33.5069 34.9753 33.9967 35.8846 34.9376L44.3726 26.7337Z" fill="white" mask="url(#path-1-outside-1_147_4556)"/>
<path fill-rule="evenodd" clip-rule="evenodd" d="M32.6403 19.7218C31.3962 19.7218 30.3593 20.7417 30.3593 22.035C30.3593 23.3282 31.3962 24.3481 32.6403 24.3481C33.8844 24.3481 34.9213 23.3282 34.9213 22.035C34.9213 20.7417 33.8844 19.7218 32.6403 19.7218ZM25.4243 22.035C25.4243 18.0477 28.6394 14.7868 32.6403 14.7868C36.6412 14.7868 39.8562 18.0477 39.8562 22.035C39.8562 23.7133 39.2866 25.2629 38.3285 26.4948C39.6447 27.1524 40.8552 28.0367 41.903 29.1208C43.621 30.8984 44.8047 33.1111 45.3596 35.4985C46.7709 34.8223 48.3344 34.5439 49.849 34.6173C54.3071 34.8334 58.8575 38.1785 58.8575 44.325C58.8575 46.6826 58.0219 49.0208 56.8996 51.0947C55.7646 53.192 54.2468 55.1845 52.6658 56.8991C51.0843 58.6143 49.3828 60.1128 47.8333 61.2034C47.0602 61.7476 46.2842 62.219 45.5474 62.5642C44.8675 62.8826 43.9853 63.2079 43.069 63.2079C42.1528 63.2079 41.268 62.8818 40.5868 62.564C39.8472 62.219 39.0659 61.7474 38.2858 61.2027C36.7222 60.1109 35.0003 58.6106 33.3978 56.8944C31.7961 55.1791 30.256 53.1865 29.1033 51.0918C27.9646 49.0222 27.1106 46.6833 27.1106 44.325C27.1106 38.1809 31.6967 34.7705 36.1783 34.5062C37.4683 34.4301 38.7969 34.6073 40.0401 35.071C39.6313 34.1383 39.0624 33.2828 38.3546 32.5504C36.8108 30.9532 34.7353 30.0721 32.5895 30.0721C30.4438 30.0721 28.3683 30.9532 26.8245 32.5504C25.2779 34.1505 24.3949 36.3381 24.3949 38.636V47.4186H19.46V38.636C19.46 35.0825 20.8236 31.6583 23.2761 29.1208C24.3433 28.0166 25.5793 27.1197 26.9239 26.4584C25.9828 25.2325 25.4243 23.6968 25.4243 22.035ZM45.5365 43.4551H40.6016C40.6016 41.8218 40.0259 40.8644 39.3637 40.3021C38.6524 39.6979 37.6178 39.3648 36.4688 39.4326C34.2049 39.5661 32.0455 41.1674 32.0455 44.325C32.0455 45.5369 32.5038 47.0351 33.427 48.7128C34.3363 50.3653 35.6077 52.0303 37.0047 53.5264C38.4008 55.0215 39.8646 56.2862 41.1111 57.1566C41.7361 57.593 42.266 57.9019 42.6733 58.0919C42.8651 58.1814 42.9946 58.2279 43.0687 58.2516C43.1417 58.2281 43.2679 58.1825 43.454 58.0953C43.8548 57.9075 44.3767 57.6015 44.9928 57.1679C46.2216 56.303 47.6632 55.0446 49.0378 53.5538C50.413 52.0624 51.6643 50.4 52.5594 48.746C53.4671 47.0686 53.9226 45.5591 53.9226 44.325C53.9226 41.1698 51.8124 39.6532 49.61 39.5465C48.4806 39.4917 47.4544 39.8287 46.7473 40.429C46.0898 40.9872 45.5365 41.9133 45.5365 43.4551Z" fill="#272A2F"/>
</svg>

<svg width="78" height="78" fill="none"
   xmlns="http://www.w3.org/2000/svg">
   <path fill="#f36" d="M.12.05h78v78h-78z"/>
   <mask id="a" maskUnits="userSpaceOnUse" x="15.927" y="11.254" width="47" height="56" fill="#000">
      <path fill="#fff" d="M15.927 11.254h47v56h-47z"/>
      <path fill-rule="evenodd" clip-rule="evenodd" d="M32.64 26.816c2.623 0 4.749-2.14 4.749-4.781 0-2.64-2.126-4.78-4.749-4.78-2.622 0-4.748 2.14-4.748 4.78s2.126 4.78 4.748 4.78zm7.489 4.02c2 2.068 3.123 4.874 3.123 7.8v3.114c1.597-7.047 13.138-6.083 13.138 2.575 0 7.183-10.328 16.415-13.321 16.415-2.938 0-13.108-8.938-13.48-16.02h-7.662v-6.084c0-2.926 1.124-5.732 3.123-7.8 2-2.07 4.712-3.231 7.54-3.231 2.827 0 5.54 1.162 7.539 3.23z"/>
   </mask>
   <path fill-rule="evenodd" clip-rule="evenodd" d="M32.64 26.816c2.623 0 4.749-2.14 4.749-4.781 0-2.64-2.126-4.78-4.749-4.78-2.622 0-4.748 2.14-4.748 4.78s2.126 4.78 4.748 4.78zm7.489 4.02c2 2.068 3.123 4.874 3.123 7.8v3.114c1.597-7.047 13.138-6.083 13.138 2.575 0 7.183-10.328 16.415-13.321 16.415-2.938 0-13.108-8.938-13.48-16.02h-7.662v-6.084c0-2.926 1.124-5.732 3.123-7.8 2-2.07 4.712-3.231 7.54-3.231 2.827 0 5.54 1.162 7.539 3.23z" fill="#fff"/>
   <path d="m40.129 30.836-4.244 4.102zm3.123 10.914h-5.903a5.902 5.902 0 0 0 11.659 1.305zm-.183 18.99v-5.902Zm-13.48-16.02 5.894-.31a5.902 5.902 0 0 0-5.894-5.592Zm-7.662 0h-5.902a5.902 5.902 0 0 0 5.902 5.902zm3.123-13.884 4.244 4.102zm6.436-8.801c0-.582.48-1.122 1.154-1.122v11.805c5.92 0 10.65-4.82 10.65-10.683zm1.154 1.122c-.675 0-1.154-.54-1.154-1.122h11.805c0-5.862-4.731-10.683-10.65-10.683zm1.154-1.122c0 .582-.48 1.122-1.154 1.122V11.352c-5.92 0-10.65 4.82-10.65 10.683zm-1.154-1.122c.675 0 1.154.54 1.154 1.122H21.989c0 5.862 4.731 10.683 10.651 10.683zm16.514 17.723c0-4.428-1.698-8.712-4.781-11.902l-8.488 8.204c.916.947 1.464 2.274 1.464 3.698zm0 3.114v-3.114H37.349v3.114zm13.138 2.575c0-7.59-5.377-12.208-11.035-13.02-5.328-.764-12.118 1.887-13.762 9.141l11.513 2.609c.023-.105.041-.102.006-.055-.03.042-.06.058-.052.055.041-.025.264-.116.62-.065.338.049.548.19.645.295.045.048.097.12.145.246.047.126.116.375.116.794zM43.07 66.643c1.671 0 3.101-.577 3.936-.968.97-.455 1.923-1.042 2.805-1.663 1.773-1.248 3.655-2.913 5.381-4.785 1.724-1.87 3.428-4.092 4.73-6.498 1.271-2.35 2.371-5.264 2.371-8.404H50.488c0 .452-.191 1.385-.95 2.786-.728 1.346-1.793 2.778-3.025 4.114-1.231 1.335-2.492 2.426-3.497 3.134-.507.357-.852.548-1.02.626-.302.142.15-.147 1.073-.147zM23.694 45.029c.16 3.037 1.32 5.843 2.624 8.118 1.337 2.33 3.044 4.483 4.764 6.299 1.72 1.816 3.586 3.432 5.338 4.643.872.602 1.812 1.172 2.77 1.613.823.38 2.233.94 3.879.94V54.839c.911 0 1.36.281 1.064.145-.162-.075-.501-.26-1.002-.605-.992-.686-2.244-1.747-3.48-3.052-1.236-1.304-2.325-2.713-3.092-4.051-.799-1.392-1.05-2.36-1.076-2.865zm-1.767 5.593h7.661V38.818h-7.66Zm-5.902-11.986v6.084H27.83v-6.084Zm4.781-11.902c-3.083 3.19-4.781 7.475-4.781 11.902H27.83c0-1.424.548-2.75 1.464-3.698zm11.783-5.032c-4.459 0-8.693 1.835-11.783 5.032l8.488 8.203c.91-.94 2.1-1.43 3.295-1.43zm11.784 5.032c-3.09-3.197-7.324-5.032-11.784-5.032v11.805c1.197 0 2.386.49 3.296 1.43z" fill="#fff" mask="url(#a)"/>
   <path fill-rule="evenodd" clip-rule="evenodd" d="M32.64 19.722c-1.244 0-2.28 1.02-2.28 2.313 0 1.293 1.036 2.313 2.28 2.313 1.244 0 2.281-1.02 2.281-2.313 0-1.293-1.037-2.313-2.28-2.313zm-7.216 2.313c0-3.987 3.215-7.248 7.216-7.248s7.216 3.26 7.216 7.248c0 1.678-.57 3.228-1.528 4.46a13.14 13.14 0 0 1 3.575 2.626 13.604 13.604 0 0 1 3.457 6.378c1.41-.677 2.974-.955 4.489-.882 4.458.216 9.009 3.562 9.009 9.708 0 2.358-.836 4.696-1.958 6.77-1.135 2.097-2.653 4.09-4.234 5.804-1.582 1.715-3.283 3.214-4.833 4.304-.773.545-1.549 1.016-2.286 1.361-.68.319-1.562.644-2.478.644-.916 0-1.801-.326-2.482-.644-.74-.345-1.521-.817-2.301-1.361-1.564-1.092-3.286-2.592-4.888-4.309-1.602-1.715-3.142-3.708-4.295-5.802-1.138-2.07-1.992-4.409-1.992-6.767 0-6.144 4.586-9.555 9.067-9.819a9.488 9.488 0 0 1 3.862.565 8.583 8.583 0 0 0-1.685-2.52c-1.544-1.598-3.62-2.479-5.765-2.479-2.146 0-4.222.881-5.766 2.478-1.546 1.6-2.43 3.788-2.43 6.086v8.783H19.46v-8.783c0-3.554 1.364-6.978 3.816-9.515a13.139 13.139 0 0 1 3.648-2.663 7.243 7.243 0 0 1-1.5-4.423zm20.113 21.42h-4.935c0-1.633-.576-2.59-1.238-3.153-.712-.604-1.746-.937-2.895-.87-2.264.134-4.423 1.735-4.423 4.893 0 1.212.458 2.71 1.381 4.388.91 1.652 2.18 3.317 3.578 4.813 1.396 1.495 2.86 2.76 4.106 3.63.625.437 1.155.746 1.562.936.192.09.322.136.396.16.073-.024.199-.07.385-.157.4-.187.923-.493 1.539-.927 1.229-.865 2.67-2.123 4.045-3.614 1.375-1.492 2.626-3.154 3.521-4.808.908-1.677 1.364-3.187 1.364-4.421 0-3.155-2.11-4.672-4.313-4.779-1.13-.054-2.156.283-2.863.883-.657.558-1.21 1.484-1.21 3.026z" fill="#272a2f"/>
</svg>
